public/main-frontend/img/bbc.svg

<svg width="162" height="46" viewBox="0 0 162 46" fill="none" xmlns="http://www.w3.org/2000/svg">
<g clip-path="url(#clip0_228_846)">
<mask id="mask0_228_846" style="mask-type:luminance" maskUnits="userSpaceOnUse" x="0" y="0" width="162" height="46">
<path d="M0 0H162V46H0V0Z" fill="white"/>
</mask>
<g mask="url(#mask0_228_846)">
<path d="M87.7495 29.6496C87.7495 34.5896 81.5285 34.2966 81.5285 34.2966H75.3065V25.3676H81.5285C87.9355 25.3316 87.7495 29.6496 87.7495 29.6496ZM75.3065 11.7556H80.0475C84.9735 12.0126 84.7875 15.6346 84.7875 15.6346C84.7875 20.1346 79.3435 20.2086 79.3435 20.2086H75.3065V11.7556ZM86.6035 21.9656C86.6035 21.9656 90.8625 20.1716 90.8255 15.4156C90.8255 15.4156 91.4725 7.62165 81.0195 6.66965H69.4175V39.3456H82.7135C82.7135 39.3456 93.8235 39.3826 93.8235 30.1256C93.8235 30.1256 94.0845 23.8306 86.6035 21.9656ZM56.5825 0.264648H105.417V45.7316H56.5825V0.266648V0.264648ZM31.4365 29.6496C31.4365 34.5896 25.2145 34.2966 25.2145 34.2966H18.9925V25.3676H25.2145C31.6215 25.3316 31.4365 29.6496 31.4365 29.6496ZM18.9925 11.7556H23.7325C28.6595 12.0126 28.4735 15.6346 28.4735 15.6346C28.4735 20.1346 23.0295 20.2086 23.0295 20.2086H18.9925V11.7556ZM30.2885 21.9656C30.2885 21.9656 34.5485 20.1716 34.5105 15.4156C34.5105 15.4156 35.1585 7.62165 24.7055 6.66965H13.1035V39.3456H26.3995C26.3995 39.3456 37.5105 39.3826 37.5105 30.1256C37.5105 30.1256 37.7705 23.8306 30.2885 21.9656ZM0.269531 0.264648H49.1025V45.7316H0.269531V0.266648V0.264648ZM151.767 9.01165V15.0496C151.767 15.0496 145.804 11.4266 139.212 11.3536C139.212 11.3536 126.916 11.1166 126.361 22.9996C126.361 22.9996 125.916 33.9306 139.064 34.5536C139.064 34.5536 144.583 35.2116 152.064 30.4916V36.7486C152.064 36.7486 142.027 42.6396 130.398 38.1026C130.398 38.1026 120.62 34.5726 120.249 22.9996C120.249 22.9996 119.842 11.0976 132.879 7.14565C132.879 7.14565 136.361 5.82865 142.619 6.41365C142.619 6.41365 146.36 6.77965 151.767 9.01165ZM112.897 45.7327H161.73V0.266648H112.897V45.7327Z" fill="white"/>
</g>
</g>
<defs>
<clipPath id="clip0_228_846">
<rect width="162" height="46" fill="white"/>
</clipPath>
</defs>
</svg>

<svg xmlns="http://www.w3.org/2000/svg" width="162" height="46" fill="none"><g fill="#1B202F" clip-path="url(#a)"><path d="M87.75 29.65c0 4.94-6.221 4.647-6.221 4.647h-6.222v-8.929h6.222c6.407-.036 6.222 4.282 6.222 4.282ZM75.307 11.756h4.741c4.926.257 4.74 3.879 4.74 3.879 0 4.5-5.444 4.574-5.444 4.574h-4.037v-8.453Zm11.297 10.21s4.259-1.794 4.222-6.55c0 0 .647-7.794-9.806-8.746H69.418v32.676h13.296s11.11.037 11.11-9.22c0 0 .26-6.295-7.221-8.16ZM56.583.265h48.834v45.467H56.583V.267ZM31.437 29.65c0 4.94-6.222 4.647-6.222 4.647h-6.222v-8.929h6.222c6.407-.036 6.222 4.282 6.222 4.282ZM18.993 11.756h4.74c4.927.257 4.741 3.879 4.741 3.879 0 4.5-5.444 4.574-5.444 4.574h-4.037v-8.453Zm11.296 10.21s4.26-1.794 4.222-6.55c0 0 .648-7.794-9.805-8.746H13.104v32.676H26.4s11.111.037 11.111-9.22c0 0 .26-6.295-7.222-8.16ZM.27.265h48.833v45.467H.27V.267ZM151.767 9.012v6.038s-5.963-3.623-12.555-3.696c0 0-12.296-.237-12.851 11.646 0 0-.445 10.931 12.703 11.554 0 0 5.519.658 13-4.062v6.257s-10.037 5.891-21.666 1.354c0 0-9.778-3.53-10.149-15.103 0 0-.407-11.902 12.63-15.854 0 0 3.482-1.317 9.74-.732 0 0 3.741.366 9.148 2.598Zm-38.87 36.721h48.833V.267h-48.833v45.466Z"/></g><defs><clipPath id="a"><path fill="#fff" d="M0 0h162v46H0z"/></clipPath></defs></svg>
